COLOR/action 16/16/edit-redo.svg

<svg height="16" width="16" xmlns="http://www.w3.org/2000/svg"><path d="m6.7499999 13.357146 8.7499951-6.5717417-8.7499951-6.2854043v3.5714307c-.5515954-.034984-1.0181747-.043731-1.4772752 0-4.7184476.654633-4.7727247 6.6239873-4.7727247 11.4285693h1.3636307c0-2.443416.070267-3.91972 1.3178875-5.100309.8945468-.846476 2.4023174-.613976 3.5684817-.613976z" fill="#45a925"/><path d="m6.75.5v.5l8.410156 6.0410156.339844-.2558594zm-.7734375 3.5410156c-.2429818-.0010933-.4735748.0093845-.703125.03125-4.7184476.654633-4.7734375 6.6231524-4.7734375 11.4277344h.00390625c.00867283-4.710811.21103251-10.2952925 4.76953125-10.9277344.4591005-.043731.9249671-.034984 1.4765625 0v-.5c-.2757977-.017492-.5304557-.0301566-.7734375-.03125z" fill="#fff" opacity=".3"/><path d="m15.160156 6.5410156-8.410156 6.3164064v.5l8.75-6.5722658zm-9.3339841 2.7207032c-.957968-.0257121-1.9736212.0038148-2.6445313.6386718-1.2476205 1.1805894-1.3183594 2.6561934-1.3183594 5.0996094h-1.35937495c-.00030431.165293-.00390625.337131-.00390625.5h1.3632812c0-2.443416.0707389-3.91902 1.3183594-5.099609.8945468-.8464764 2.4021951-.6152348 3.5683594-.6152348v-.5c-.2915411 0-.6045055-.0148668-.9238281-.0234374z" opacity=".2"/></svg>

<?xml version="1.0" encoding="UTF-8" standalone="no"?>
<svg
   xmlns:dc="http://purl.org/dc/elements/1.1/"
   xmlns:cc="http://creativecommons.org/ns#"
   xmlns:rdf="http://www.w3.org/1999/02/22-rdf-syntax-ns#"
   xmlns:svg="http://www.w3.org/2000/svg"
   xmlns="http://www.w3.org/2000/svg"
   xmlns:sodipodi="http://sodipodi.sourceforge.net/DTD/sodipodi-0.dtd"
   xmlns:inkscape="http://www.inkscape.org/namespaces/inkscape"
   height="16"
   width="16"
   version="1.1"
   id="svg4"
   sodipodi:docname="edit-redo.svg"
   inkscape:version="0.92.4 (5da689c313, 2019-01-14)">
  <metadata
     id="metadata10">
    <rdf:RDF>
      <cc:Work
         rdf:about="">
        <dc:format>image/svg+xml</dc:format>
        <dc:type
           rdf:resource="http://purl.org/dc/dcmitype/StillImage" />
      </cc:Work>
    </rdf:RDF>
  </metadata>
  <defs
     id="defs8" />
  <sodipodi:namedview
     pagecolor="#ffffff"
     bordercolor="#808080"
     borderopacity="1"
     objecttolerance="10"
     gridtolerance="10"
     guidetolerance="10"
     inkscape:pageopacity="0"
     inkscape:pageshadow="2"
     inkscape:window-width="1920"
     inkscape:window-height="1016"
     id="namedview6"
     showgrid="false"
     inkscape:zoom="14.75"
     inkscape:cx="0.30508475"
     inkscape:cy="8"
     inkscape:window-x="0"
     inkscape:window-y="27"
     inkscape:window-maximized="1"
     inkscape:current-layer="svg4" />
  <path
     d="M 6.7499999,13.357146 15.499995,6.7854043 6.7499999,0.5 v 3.5714307 c -0.5515954,-0.034984 -1.0181747,-0.043731 -1.4772752,0 C 0.5542771,4.7260637 0.5,10.695418 0.5,15.5 h 1.3636307 c 0,-2.443416 0.070267,-3.91972 1.3178875,-5.100309 C 4.076065,9.553215 5.5838356,9.785715 6.7499999,9.785715 Z"
     id="path2"
     inkscape:connector-curvature="0"
     style="fill:#45a925" />
  <path
     style="fill:#ffffff;fill-opacity:1;opacity:0.3"
     d="M 6.75 0.5 L 6.75 1 L 15.160156 7.0410156 L 15.5 6.7851562 L 6.75 0.5 z M 5.9765625 4.0410156 C 5.7335807 4.0399223 5.5029877 4.0504001 5.2734375 4.0722656 C 0.5549899 4.7268986 0.5 10.695418 0.5 15.5 L 0.50390625 15.5 C 0.51257908 10.789189 0.71493876 5.2047075 5.2734375 4.5722656 C 5.732538 4.5285346 6.1984046 4.5372816 6.75 4.5722656 L 6.75 4.0722656 C 6.4742023 4.0547736 6.2195443 4.042109 5.9765625 4.0410156 z "
     id="path819" />
  <path
     style="fill:#000000;fill-opacity:1;opacity:0.2"
     d="M 15.160156 6.5410156 L 6.75 12.857422 L 6.75 13.357422 L 15.5 6.7851562 L 15.160156 6.5410156 z M 5.8261719 9.2617188 C 4.8682039 9.2360067 3.8525507 9.2655336 3.1816406 9.9003906 C 1.9340201 11.08098 1.8632812 12.556584 1.8632812 15 L 0.50390625 15 C 0.50360194 15.165293 0.5 15.337131 0.5 15.5 L 1.8632812 15.5 C 1.8632812 13.056584 1.9340201 11.58098 3.1816406 10.400391 C 4.0761874 9.5539146 5.5838357 9.7851562 6.75 9.7851562 L 6.75 9.2851562 C 6.4584589 9.2851562 6.1454945 9.2702894 5.8261719 9.2617188 z "
     id="path824" />
</svg>
